assets/images/script/r-6-e2.svg

<svg fill="none" height="59" viewBox="0 0 230 59" width="230" xmlns="http://www.w3.org/2000/svg"><path d="m5.58112 42.7692c-10.49084 0 20.78148 3.9958 31.26508 3.6075 12.8679-.4766 57.4198-10.897 51.4071-31.3403-4.9371-16.78594-32.7476-14.686541-42.9896-5.0355-7.5922 7.1542-3.8805 18.5653 1.5783 25.7787 8.3457 11.0282 22.8847 17.2391 36.1503 19.6159 28.3247 5.0748 55.2787-10.303 75.3817-28.8601 18.576-17.14704 32.822-30.36749 57.53-14.5052 13.59 8.7243 17.1 30.5401-3.369 36.4905-17.794 5.1726-27.665 1.7284-37.852-14.2797" stroke="#000" stroke-linecap="round" stroke-width="5"/></svg>

<svg width="230" height="59" viewBox="0 0 230 59" fill="none" xmlns="http://www.w3.org/2000/svg">
<path d="M5.58112 42.7692C-4.90972 42.7692 26.3626 46.765 36.8462 46.3767C49.7141 45.9001 94.266 35.4797 88.2533 15.0364C83.3162 -1.74954 55.5057 0.349859 45.2637 10.0009C37.6715 17.1551 41.3832 28.5662 46.842 35.7796C55.1877 46.8078 69.7267 53.0187 82.9923 55.3955C111.317 60.4703 138.271 45.0925 158.374 26.5354C176.95 9.38836 191.196 -3.83209 215.904 12.0302C229.494 20.7545 233.004 42.5703 212.535 48.5207C194.741 53.6933 184.87 50.2491 174.683 34.241" stroke="black" stroke-width="5" stroke-linecap="round"/>
</svg>
